ion/scan-sharp.svg

<svg viewBox="0 0 512 512" xmlns="http://www.w3.org/2000/svg"><g><path d="M388 466h-68v-44h68v0c18.77 0 34-15.23 34-34v-68h44v68 0c-.05 43.05-34.95 77.95-78 78Z"/><path d="M466 192h-44v-68 0c0-18.78-15.23-34-34-34h-68V46h68 0c43.05.04 77.95 34.94 78 78Z"/><path d="M192 466h-68v0c-43.06-.05-77.96-34.95-78-78v-68h44v68 0c0 18.77 15.22 34 34 34h68Z"/><path d="M90 192H46v-68 0c.04-43.06 34.94-77.96 78-78h68v44h-68v0c-18.78 0-34 15.22-34 34Z"/></g></svg>

<svg xmlns="http://www.w3.org/2000/svg" width="512" height="512" viewBox="0 0 512 512"><path d="M388,466H320V422h68a34,34,0,0,0,34-34V320h44v68A78.09,78.09,0,0,1,388,466Z"/><path d="M466,192H422V124a34,34,0,0,0-34-34H320V46h68a78.09,78.09,0,0,1,78,78Z"/><path d="M192,466H124a78.09,78.09,0,0,1-78-78V320H90v68a34,34,0,0,0,34,34h68Z"/><path d="M90,192H46V124a78.09,78.09,0,0,1,78-78h68V90H124a34,34,0,0,0-34,34Z"/></svg>
